Sweet-Rainbow/icons/yuna.svg

<?xml version="1.0" encoding="UTF-8" standalone="no"?>
<!-- Generator: Gravit.io -->

<svg
   xmlns:dc="http://purl.org/dc/elements/1.1/"
   xmlns:cc="http://creativecommons.org/ns#"
   xmlns:rdf="http://www.w3.org/1999/02/22-rdf-syntax-ns#"
   xmlns:svg="http://www.w3.org/2000/svg"
   xmlns="http://www.w3.org/2000/svg"
   xmlns:sodipodi="http://sodipodi.sourceforge.net/DTD/sodipodi-0.dtd"
   xmlns:inkscape="http://www.inkscape.org/namespaces/inkscape"
   style="isolation:isolate"
   viewBox="0 0 36 36"
   width="48"
   height="48"
   version="1.1"
   id="svg9"
   sodipodi:docname="yuna.svg"
   inkscape:version="0.92.4 (5da689c313, 2019-01-14)">
  <metadata
     id="metadata15">
    <rdf:RDF>
      <cc:Work
         rdf:about="">
        <dc:format>image/svg+xml</dc:format>
        <dc:type
           rdf:resource="http://purl.org/dc/dcmitype/StillImage" />
        <dc:title></dc:title>
      </cc:Work>
    </rdf:RDF>
  </metadata>
  <defs
     id="defs13" />
  <sodipodi:namedview
     pagecolor="#ffffff"
     bordercolor="#666666"
     borderopacity="1"
     objecttolerance="10"
     gridtolerance="10"
     guidetolerance="10"
     inkscape:pageopacity="0"
     inkscape:pageshadow="2"
     inkscape:window-width="640"
     inkscape:window-height="480"
     id="namedview11"
     showgrid="false"
     inkscape:zoom="29.365243"
     inkscape:cx="25.325443"
     inkscape:cy="32"
     inkscape:current-layer="svg9"
     units="px" />
  <linearGradient
     id="_lgradient_15"
     x1="0.67180997"
     y1="0.020570019"
     x2="0.42214948"
     y2="0.96016449"
     gradientTransform="matrix(47,0,0,45.73,0.5,0.5)"
     gradientUnits="userSpaceOnUse">
    <stop
       offset="0%"
       stop-opacity="1"
       style="stop-color:rgb(26,108,255)"
       id="stop2" />
    <stop
       offset="100%"
       stop-opacity="1"
       style="stop-color:rgb(197,34,255)"
       id="stop4" />
  </linearGradient>
  <g
     id="g826"
     transform="matrix(0.76595745,0,0,0.76595745,-0.3829788,0.10340418)">
    <path
       id="path7"
       d="m 36.086,8.698 -4.707,18.841 c -0.535,2.142 -2.761,3.881 -4.969,3.881 h -0.07 v 12.81 0 c 0,1.104 -0.896,2 -2,2 v 0 c -1.104,0 -2,-0.896 -2,-2 v 0 -12.81 h -0.03 c -2.208,0 -4.48,-1.727 -5.071,-3.854 L 11.981,8.645 C 11.363,9.128 10.771,9.65 10.21,10.21 6.56,13.87 4.5,18.83 4.5,24 c 0,3.92 1.18,7.74 3.39,10.98 2.2,3.24 5.33,5.74 8.97,7.17 v 0 c 1.027,0.403 1.533,1.566 1.13,2.595 v 0 c -0.403,1.029 -1.563,1.533 -2.59,1.125 v 0 C 11.01,44.14 7.24,41.13 4.58,37.23 1.92,33.33 0.5,28.72 0.5,24 0.5,17.77 2.98,11.79 7.38,7.38 11.79,2.98 17.77,0.5 24,0.5 c 6.23,0 12.21,2.48 16.62,6.88 4.4,4.41 6.88,10.39 6.88,16.62 0,4.53 -1.31,8.97 -3.78,12.77 -2.46,3.81 -5.97,6.82 -10.11,8.68 v 0 c -1.004,0.453 -2.187,0.002 -2.64,-1.005 v 0 c -0.453,-1.007 0,-2.192 1.01,-2.645 v 0 c 3.43,-1.54 6.34,-4.04 8.39,-7.2 C 42.41,31.44 43.5,27.76 43.5,24 43.5,18.83 41.44,13.87 37.79,10.21 37.249,9.671 36.68,9.166 36.086,8.698 Z M 32.52,6.462 27.774,25.48 c -0.267,1.07 -1.38,1.94 -2.484,1.94 h -1.94 c -1.104,0 -2.24,-0.864 -2.535,-1.927 L 15.528,6.439 C 18.146,5.176 21.039,4.5 24,4.5 c 2.979,0 5.889,0.684 8.52,1.962 z"
       style="fill:url(#_lgradient_15);fill-rule:evenodd"
       inkscape:connector-curvature="0" />
  </g>
</svg>

<?xml version="1.0" encoding="UTF-8" standalone="no"?><!-- Generator: Gravit.io --><svg xmlns="http://www.w3.org/2000/svg" xmlns:xlink="http://www.w3.org/1999/xlink" style="isolation:isolate" viewBox="0 0 48 48" width="48pt" height="48pt"><linearGradient id="_lgradient_15" x1="0.6718099850460906" y1="0.020570018975650584" x2="0.4221494918345081" y2="0.9601645064179158" gradientTransform="matrix(47,0,0,45.73,0.5,0.5)" gradientUnits="userSpaceOnUse"><stop offset="0%" stop-opacity="1" style="stop-color:rgb(26,108,255)"/><stop offset="100%" stop-opacity="1" style="stop-color:rgb(197,34,255)"/></linearGradient><path d=" M 36.086 8.698 L 31.379 27.539 C 30.844 29.681 28.618 31.42 26.41 31.42 L 26.34 31.42 L 26.34 44.23 L 26.34 44.23 C 26.34 45.334 25.444 46.23 24.34 46.23 L 24.34 46.23 C 23.236 46.23 22.34 45.334 22.34 44.23 L 22.34 44.23 L 22.34 31.42 L 22.31 31.42 C 20.102 31.42 17.83 29.693 17.239 27.566 L 11.981 8.645 C 11.363 9.128 10.771 9.65 10.21 10.21 C 6.56 13.87 4.5 18.83 4.5 24 C 4.5 27.92 5.68 31.74 7.89 34.98 C 10.09 38.22 13.22 40.72 16.86 42.15 L 16.86 42.15 C 17.887 42.553 18.393 43.716 17.99 44.745 L 17.99 44.745 C 17.587 45.774 16.427 46.278 15.4 45.87 L 15.4 45.87 C 11.01 44.14 7.24 41.13 4.58 37.23 C 1.92 33.33 0.5 28.72 0.5 24 C 0.5 17.77 2.98 11.79 7.38 7.38 C 11.79 2.98 17.77 0.5 24 0.5 C 30.23 0.5 36.21 2.98 40.62 7.38 C 45.02 11.79 47.5 17.77 47.5 24 C 47.5 28.53 46.19 32.97 43.72 36.77 C 41.26 40.58 37.75 43.59 33.61 45.45 L 33.61 45.45 C 32.606 45.903 31.423 45.452 30.97 44.445 L 30.97 44.445 C 30.517 43.438 30.97 42.253 31.98 41.8 L 31.98 41.8 C 35.41 40.26 38.32 37.76 40.37 34.6 C 42.41 31.44 43.5 27.76 43.5 24 C 43.5 18.83 41.44 13.87 37.79 10.21 C 37.249 9.671 36.68 9.166 36.086 8.698 Z  M 32.52 6.462 L 27.774 25.48 C 27.507 26.55 26.394 27.42 25.29 27.42 L 23.35 27.42 C 22.246 27.42 21.11 26.556 20.815 25.493 L 15.528 6.439 C 18.146 5.176 21.039 4.5 24 4.5 C 26.979 4.5 29.889 5.184 32.52 6.462 Z " fill-rule="evenodd" fill="url(#_lgradient_15)"/></svg>
